!!!COM: Palestrina, Giovanni Perluigi da
!!!OPR: Missa Sacerdotes Domini
!!!OMD: Sanctus
!!!OTL: First Section
**kern	**kern	**kern	**kern	**kern	**kern
*Ibass	*Ibarit	*Itenor	*Itenor	*Icalto	*Icant
!Bassus	!Baritone	!Tenor 2	!Tenor 1	!Altus	!Cantus
*clefF4	*clefF4	*clefGv2	*clefGv2	*clefG2	*clefG2
*k[]	*k[]	*k[]	*k[]	*k[]	*k[]
*G:mix	*G:mix	*G:mix	*G:mix	*G:mix	*G:mix
*M4/2	*M4/2	*M4/2	*M4/2	*M4/2	*M4/2
=1	=1	=1	=1	=1	=1
0r	0r	0r	0r	1.g	1r
.	.	.	.	.	[1dd
.	.	.	.	2g	.
=2	=2	=2	=2	=2	=2
0r	0r	0r	0r	2f	2dd]
.	.	.	.	2d	2dd
.	.	.	.	[1f	2cc
.	.	.	.	.	2a
=3	=3	=3	=3	=3	=3
1.A	0r	0r	0r	2f]	1.cc
.	.	.	.	4e	.
.	.	.	.	4d	.
.	.	.	.	2.e	.
2A	.	.	.	.	4b
.	.	.	.	4c	4a
=4	=4	=4	=4	=4	=4
2G	0r	0r	0r	2d	2b
2E	.	.	.	1e	2g
[1G	.	.	.	.	[1b
.	.	.	.	4d	.
.	.	.	.	4c	.
=5	=5	=5	=5	=5	=5
2G]	0r	0r	0r	2d	2b]
4F	.	.	.	1e	4a
4E	.	.	.	.	4g
1F	.	.	.	.	1a
.	.	.	.	2d	.
=6	=6	=6	=6	=6	=6
0C	1.c	0r	0r	0e	1g
.	.	.	.	.	2.g
.	2c	.	.	.	.
.	.	.	.	.	4a
=7	=7	=7	=7	=7	=7
0G	2B	1r	0r	2r	4b
.	.	.	.	.	4a
.	2G	.	.	1g	4b
.	.	.	.	.	4cc
.	[1B	[1d	.	.	1dd
.	.	.	.	2g	.
=8	=8	=8	=8	=8	=8
2.D	2B]	2d]	0r	4f	2dd
.	.	.	.	4d	.
.	4A	2d	.	2.a	1ff
4E	4G	.	.	.	.
1F	1A	2c	.	.	.
.	.	.	.	4b	.
.	.	2A	.	[2cc	4ee
.	.	.	.	.	4dd
=9	=9	=9	=9	=9	=9
1C	1G	1.c	1.e	2cc]	1ee
.	.	.	.	4b	.
.	.	.	.	4a	.
1C	1r	.	.	2g	1ee
.	.	4B	2e	[2a	.
.	.	4A	.	.	.
=10	=10	=10	=10	=10	=10
2D	0r	1B	2d	2a]	1r
2E	.	.	2B	2g	.
2F	.	1A	[1d	[1f	2r
2D	.	.	.	.	[2a
=11	=11	=11	=11	=11	=11
2.F	1r	0r	2d]	1f]	4a]
.	.	.	.	.	4b
.	.	.	4c	.	2.cc
4G	.	.	4B	.	.
1A	2r	.	1c	1e	.
.	.	.	.	.	4b
.	[2e	.	.	.	[2a
=12	=12	=12	=12	=12	=12
1E	2e]	0r	1B	2r	2a]
.	2e	.	.	1e	2g#
1A	1c	.	1r	.	[1a
.	.	.	.	2e	.
=13	=13	=13	=13	=13	=13
2F	1d	2r	0r	1f	1a]
2D	.	1f	.	.	.
1F	2d	.	.	1a	1r
.	[2c	2f	.	.	.
=14	=14	=14	=14	=14	=14
1G	2c]	1d	1r	0g	1dd
.	2B	.	.	.	.
1C	2.c	1e	2r	.	2cc
.	.	.	[2g	.	2cc
.	8B	.	.	.	.
.	8A	.	.	.	.
=15	=15	=15	=15	=15	=15
0r	1G	2e	2g]	1r	1b
.	.	1d	2g	.	.
.	1A	.	1e	2r	2a
.	.	2c#	.	2a	[2ee
=16	=16	=16	=16	=16	=16
2.D	0r	2.d	1f	2a	4ee]
.	.	.	.	.	4dd
.	.	.	.	2a	1dd
4E	.	8c	.	.	.
.	.	8B	.	.	.
4F	.	1A	2f	1a	.
4G	.	.	.	.	.
2A	.	.	[2e	.	2cc
=17	=17	=17	=17	=17	=17
2E	1r	1B	2e]	1.g	1b
2G	.	.	2d	.	.
1C	2r	1r	2.e	.	2.g
.	2c	.	.	4e	.
.	.	.	8d	4f	4a
.	.	.	8c	.	.
=18	=18	=18	=18	=18	=18
1G	2d	0r	1B	4g	4b
.	.	.	.	4a	4cc
.	2d	.	.	1g	2.dd
2E	2e	.	1c	.	.
.	.	.	.	.	4cc
2A	2c	.	.	2f#	[2cc
=19	=19	=19	=19	=19	=19
1G	1d	2r	0r	0g	2cc]
.	.	2d	.	.	2b
2r	2.c	2e	.	.	2cc
2C	.	2e	.	.	2ee
.	4B	.	.	.	.
=20	=20	=20	=20	=20	=20
2D	2A	2f	1r	2r	2dd
2D	1d	2d	.	2a	2ff
1A	.	1e	2r	2a	1ee
.	2c#	.	2e	2a	.
=21	=21	=21	=21	=21	=21
1D	1d	2.d	2f	1a	1r
.	.	.	2f	.	.
.	.	4c	.	.	.
2E	1r	2B	2g	1g	2r
2C	.	[2e	2e	.	2cc
=22	=22	=22	=22	=22	=22
1D	2r	2e]	1f	1r	2a
.	2F	2d	.	.	2a
1C	2G	1e	2.e	2r	2.cc
.	2G	.	.	2e	.
.	.	.	4d	.	4b
=23	=23	=23	=23	=23	=23
1F	2A	1r	2c	4f	1a
.	.	.	.	4g	.
.	2F	.	1f	4a	.
.	.	.	.	4b	.
2C	2G	2r	.	1cc	1g
2C	2G	2G	2e	.	.
=24	=24	=24	=24	=24	=24
2F	1F	2A	1f	1a	2r
2D	.	2A	.	.	1dd
2G	1r	2B	1r	2r	.
2E	.	2G	.	[2g	2cc
=25	=25	=25	=25	=25	=25
1D	0r	2A	2r	2g]	2.dd
.	.	2A	2A	2f#	.
.	.	.	.	.	4cc
1G	.	1G	2B	2.g	4b
.	.	.	.	.	4a
.	.	.	2B	.	[2b
.	.	.	.	4f	.
=26	=26	=26	=26	=26	=26
0r	2r	0r	2c	4e	4b]
.	.	.	.	4d	4a
.	2c	.	2A	1e	1a
.	2d	.	2B	.	.
.	2d	.	2B	[2d	2g#
=27	=27	=27	=27	=27	=27
2r	1e	1r	1A	2d]	1a
2A	.	.	.	2c	.
2B	2d	2r	1r	1d	2r
2B	[2f	2d	.	.	2dd
=28	=28	=28	=28	=28	=28
2c	4f]	2e	0r	1g	2cc
.	4e	.	.	.	.
2C	1e	2e	.	.	2cc
2D	.	1f	.	2r	2.a
2D	2d	.	.	2f	.
.	.	.	.	.	4b
=29	=29	=29	=29	=29	=29
1C	1e	2e	2r	2g	1cc
.	.	2.g	2e	2g	.
1r	1d	.	2f	1a	1dd
.	.	4f	.	.	.
.	.	[2f	2f	.	.
=30	=30	=30	=30	=30	=30
1C	2.c	2f]	1g	1cc	1r
.	.	2e	.	.	.
.	4B	.	.	.	.
2D	2A	1f	2f	2r	1dd
2D	2d	.	[2a	2f	.
=31	=31	=31	=31	=31	=31
2E	2B	1e	4a]	2g	1g
.	.	.	4g	.	.
2C	2c	.	1g	2e	.
2D	1A	2.d	.	2a	1dd
2D	.	.	2f#	2d	.
.	.	4c	.	.	.
=32	=32	=32	=32	=32	=32
[0G	[0G	[0B	[0g	1.d	2.dd
.	.	.	.	.	4cc
.	.	.	.	.	4dd
.	.	.	.	.	4cc
.	.	.	.	2d	4b
.	.	.	.	.	4a
=33	=33	=33	=33	=33	=33
0G]	0G]	0B]	0g]	0d	0b
*-	*-	*-	*-	*-	*-
!!!CDT: 1525/^1526/-1594/2/2
!!!OCY: Italia
!!!AGN: Mass (Canonic)
!!!AST: renaissance, vocal
!!!ASW: Motet (unidentified)
!!!PWK: Masses, Book 8
!!!RNB: Cadence finals: C
!!!YOR: Le Opere Complete, v. 24, p. 157
!!!YOO: Rome, Italy: Fratelli Scalera
!!!END: 1992//
!!!EED: John Miller
!!!YEC: Copyright 2000, John Miller
!!!YEN: United States of America
!!!YEM: Rights to all derivative electronic formats reserved.
!!!YEM: Refer to licensing agreement for further details.
!!!YEM: This file must be accompanied by the licensing agreement.
!!!YEM: A copy of the licensing agreement may be found at http://www.music-cog.ohio-state.edu/HumdrumDatabases/Palestrina/license.txt
!!!EMD: converted to Humdrum by Bret Aarden
